X: 3570
T: Big Shed, The
R: reel
M: 4/4
K: Gmajor
DCAF G2 FG|AD (3DED FGA=c|BG (3GAG FGA=c|Ad df e2 fe|dc AF/ E/ (3GFG FG|
ADD2 FG A=c|BG (3GFG DGBd|=cAFA AG G2|ef f2 dfaf|
gfed ce (3ede|df (3f^ef dfaf|gecA Ad d2|DF (3FEF DFAF|
GFED CE (3EFE|DF (3FGF DFAF|GECA, A,D D2|df (3faf dfaf|
gfed ce e2|DF (3FEF DFAF|GECA, A,D/ E/ D2|

